images/strudel-twoline.svg

<svg xmlns="http://www.w3.org/2000/svg" xmlns:xlink="http://www.w3.org/1999/xlink" width="84" height="101" viewBox="0 0 84 101">
  <defs>
    <ellipse id="a" cx="37.487" cy="37.076" rx="37.487" ry="37.076"/>
  </defs>
  <g fill="none" fill-rule="evenodd">
    <g transform="translate(4)">
      <mask id="b" fill="white">
        <use xlink:href="#a"/>
      </mask>
      <path fill="#FFDA5C" fill-rule="nonzero" d="M42.382727,-0.0895084333 C60.88403,2.16275628 75.3873653,18.2251208 75.134319,37.1151942 C74.8539435,58.0353528 58.0544035,74.5453129 37.2550263,74.3423284 C16.1892925,74.1371255 -0.677537614,57.1740553 -0.359591782,36.5128959 C-0.0528921808,16.5633666 15.3661865,0.945893539 35.3188422,-0.281959572 C36.067284,-0.42480879 36.8257945,-0.54431725 37.59381,-0.639516341 C39.8413,-0.918481369 42.1235568,-0.923472791 44.3895516,-1.05546817 C44.4147855,-0.778166952 44.4405801,-0.500865731 44.4658138,-0.22356451 C43.7667939,-0.195415174 43.0724163,-0.150779012 42.382727,-0.0895084333 Z M42.382727,-0.0895084333 C41.0815555,-0.247907155 39.7606096,-0.337999491 38.4236316,-0.355965178 C37.3777248,-0.370063653 36.3423191,-0.344942633 35.3188422,-0.281959572 C12.1820766,4.13397368 -1.3326168,30.8550093 11.4364568,51.2668353 C21.8069863,67.8444569 44.2174012,71.3578634 58.0371102,58.4766671 C70.6248492,46.7434979 68.9745589,26.9342078 54.7056882,18.4942679 C43.2344046,11.708707 28.6733827,16.5803349 24.6830783,28.5392273 C21.0494117,39.427737 28.9890855,50.0128792 39.8917677,48.8143833 C45.1975939,48.2309415 49.3314505,43.6532531 49.0477104,38.6734777 C48.8391111,35.0086648 46.0061969,32.1286144 42.8514116,32.619992 C41.8869198,32.7702894 40.7844833,33.4946001 40.2422371,34.2882363 C39.9433568,34.7258175 40.5153229,35.9592534 40.9768208,36.6491787 C42.2934643,38.6180175 41.9183219,40.0854956 39.7084022,40.9817331 C36.7240851,42.1918757 32.9306044,40.2773879 31.7221859,36.7900478 C30.4072248,32.9954579 31.1513415,29.4726233 33.7593944,26.4289649 C39.1622306,20.1231352 50.0783708,20.5485153 56.0856966,27.2447852 C64.744814,36.8959769 61.1588111,52.8402425 48.9551865,58.9514067 C36.7453936,65.0653441 21.555209,60.6457172 14.2463802,48.8520963 C4.9098756,33.7885395 10.8543972,13.2199987 27.0724385,4.47669119 C31.8741026,1.8885104 36.9848296,0.390029625 42.382727,-0.0895084333 Z" mask="url(#b)"/>
    </g>
    <path fill="#534227" fill-rule="nonzero" d="M2.4891775,93.8306878 C1.73560629,93.5420861 1.20651105,93.2454721 0.901875887,92.9408369 L0.913900887,92.9408369 C0.304630565,92.3235499 0,91.5980481 0,90.7643098 C0,90.1550394 0.162336048,89.6038985 0.487012984,89.1108706 C0.811689919,88.6178427 1.23456532,88.1989756 1.75565177,87.8542569 C2.27673823,87.5095381 2.86395379,87.2429864 3.51731605,87.0545935 C4.17067831,86.8662007 4.82603484,86.7720058 5.48340548,86.7720058 C7.48758419,86.7720058 9.20714371,87.5776735 10.6421356,89.1890332 C10.8104866,89.3974677 10.8946609,89.6499905 10.8946609,89.946609 C10.8946609,90.3073611 10.7764161,90.6059793 10.5399231,90.8424723 C10.3034299,91.0789654 10.0048118,91.1972102 9.64405968,91.1972102 C9.38752476,91.1972102 9.16907258,91.1250608 8.98869645,90.98076 C8.8083204,90.8364591 8.63395944,90.6801355 8.46560847,90.5117845 C7.64790355,89.6940796 6.65384581,89.2852333 5.48340548,89.2852333 C4.32899855,89.2852333 3.40709016,89.6379635 2.71765274,90.3434344 C2.58938524,90.4717018 2.5252525,90.6480669 2.5252525,90.8725348 C2.5252525,91.0970029 2.62946823,91.2493181 2.83790282,91.3294853 L8.46560847,93.1813372 C9.25124653,93.4859723 9.78034177,93.7825864 10.0529101,94.0711881 L10.0408851,94.0711881 C10.6501554,94.6884751 10.954786,95.4139769 10.954786,96.2477152 C10.954786,96.8650023 10.7924499,97.4181473 10.467773,97.9071669 C10.143096,98.3961865 9.72022065,98.8150535 9.19913419,99.1637806 C8.67804774,99.5125077 8.09283637,99.7790595 7.44348242,99.963444 C6.79412855,100.147828 6.14077613,100.240019 5.48340548,100.240019 C3.46319339,100.240019 1.74363387,99.4423681 0.324675323,97.8470419 C0.148307581,97.6145571 0.0601250806,97.3540178 0.0601250806,97.065416 C0.0601250806,96.7046639 0.178369839,96.4060457 0.414862903,96.1695527 C0.651355968,95.9330596 0.949974113,95.8148148 1.31072629,95.8148148 C1.5752779,95.8148148 1.79974258,95.8929766 1.98412702,96.0493026 C2.16851145,96.2056285 2.33685992,96.3559396 2.4891775,96.5002405 C3.30688242,97.3179454 4.30494839,97.7267917 5.48340548,97.7267917 C6.62979573,97.7267917 7.55170403,97.366045 8.24915823,96.6445406 C8.36940895,96.5082565 8.42953347,96.3439163 8.42953347,96.1515152 C8.42953347,95.9270472 8.32130944,95.7707235 8.10485815,95.6825397 L2.4891775,93.8306878 Z M13.961039,86.7720058 L14.5262145,86.7720058 L14.5262145,82.2506013 C14.5262145,81.9058825 14.6484676,81.6112727 14.8929774,81.3667629 C15.1374872,81.1222531 15.4361053,81 15.7888408,81 C16.1335595,81 16.4281694,81.1222531 16.6726792,81.3667629 C16.917189,81.6112727 17.039442,81.9058825 17.039442,82.2506013 L17.039442,86.7720058 L18.5425685,86.7720058 C18.8872873,86.7720058 19.179893,86.8942589 19.4203944,87.1387686 C19.6608959,87.3832785 19.7811448,87.6778883 19.7811448,88.022607 C19.7811448,88.3753425 19.6608959,88.6739606 19.4203944,88.9184704 C19.179893,89.1629802 18.8872873,89.2852333 18.5425685,89.2852333 L17.039442,89.2852333 L17.039442,95.3338144 C17.039442,96.9291406 17.8411015,97.7267917 19.4444444,97.7267917 C19.7891631,97.7267917 20.0817689,97.8490448 20.3222703,98.0935546 C20.5627718,98.3380644 20.6830206,98.6326743 20.6830206,98.977393 C20.6830206,99.3301284 20.5627718,99.6287466 20.3222703,99.8732564 C20.0817689,100.117766 19.7891631,100.240019 19.4444444,100.240019 C16.1656081,100.240019 14.5262145,98.604634 14.5262145,95.3338144 L14.5262145,89.2852333 L13.961039,89.2852333 C13.6243369,89.2852333 13.3337354,89.1629802 13.0892256,88.9184704 C12.8447158,88.6739606 12.7224627,88.3753425 12.7224627,88.022607 C12.7224627,87.6778883 12.8447158,87.3832785 13.0892256,87.1387686 C13.3337354,86.8942589 13.6243369,86.7720058 13.961039,86.7720058 Z M24.8677248,88.022607 L24.8677248,88.2631073 C25.4689785,87.7821044 26.122331,87.413341 26.8278019,87.1568061 C27.5332727,86.9002713 28.2868326,86.7720058 29.0885041,86.7720058 C29.4412395,86.7720058 29.8200236,86.7960556 30.2248677,86.8441558 C30.6297119,86.8922561 31.0024835,86.9784345 31.3431939,87.1026936 C31.6839042,87.2269527 31.9664892,87.3973053 32.1909572,87.6137566 C32.4154252,87.8302079 32.5276575,88.1107887 32.5276575,88.4555074 C32.5276575,88.6318752 32.493587,88.7962154 32.4254449,88.948533 C32.3573028,89.1008506 32.2671161,89.2351285 32.1548822,89.3513709 C32.0426481,89.4676132 31.9103744,89.5577999 31.7580568,89.6219336 C31.6057392,89.6860673 31.441399,89.7181337 31.2650313,89.7181337 C31.1127137,89.7181337 30.9363486,89.6740424 30.7359307,89.5858585 C30.2308777,89.3854407 29.681741,89.2852333 29.0885041,89.2852333 C28.5032839,89.2852333 27.9541472,89.3954615 27.4410774,89.6159211 C26.9280077,89.8363808 26.4810826,90.1370031 26.1002886,90.517797 C25.7194947,90.898591 25.4188723,91.3455161 25.1984127,91.8585859 C24.9779531,92.3716556 24.8677248,92.9207923 24.8677248,93.5060125 L24.8677248,98.989418 C24.8677248,99.3341367 24.7454718,99.6287466 24.500962,99.8732564 C24.2564522,100.117766 23.9618423,100.240019 23.6171236,100.240019 C23.2643881,100.240019 22.96577,100.117766 22.7212602,99.8732564 C22.4767504,99.6287466 22.3544973,99.3341367 22.3544973,98.989418 L22.3544973,88.022607 C22.3544973,87.6778883 22.4767504,87.3832785 22.7212602,87.1387686 C22.96577,86.8942589 23.2643881,86.7720058 23.6171236,86.7720058 C23.9618423,86.7720058 24.2564522,86.8942589 24.500962,87.1387686 C24.7454718,87.3832785 24.8677248,87.6778883 24.8677248,88.022607 Z M45.2260702,100.240019 C44.8653177,100.240019 44.568704,100.11977 44.3362194,99.8792689 C44.1037347,99.6387674 43.9834855,99.3461618 43.9754694,99.001443 C43.4223153,99.4343456 42.837104,99.7489969 42.2198169,99.9454065 C41.6025298,100.141816 40.9331444,100.240019 40.2116403,100.240019 C39.3538516,100.240019 38.5441758,100.073675 37.7825879,99.7409812 C37.0209999,99.4082876 36.3556225,98.9573541 35.7864358,98.3881674 C35.217249,97.8189806 34.7663156,97.1536033 34.4336219,96.3920154 C34.1009283,95.6304275 33.934584,94.8207515 33.934584,93.962963 L33.934584,88.022607 C33.934584,87.6778883 34.056837,87.3832785 34.3013468,87.1387686 C34.5458566,86.8942589 34.8444748,86.7720058 35.1972102,86.7720058 C35.541929,86.7720058 35.8365388,86.8942589 36.0810485,87.1387686 C36.3255584,87.3832785 36.4478115,87.6778883 36.4478115,88.022607 L36.4478115,93.962963 C36.4478115,94.4840494 36.5460148,94.9730617 36.7424243,95.4300144 C36.9388338,95.8869672 37.2073895,96.2857927 37.5481,96.6265031 C37.8888105,96.9672135 38.2876363,97.2357694 38.7445887,97.432179 C39.2015411,97.6285885 39.690554,97.7267917 40.2116403,97.7267917 C40.7247097,97.7267917 41.2097137,97.6285885 41.6666669,97.432179 C42.1236194,97.2357694 42.5244492,96.9652094 42.8691677,96.6204906 C43.2138863,96.2757719 43.4844468,95.8769463 43.6808565,95.4240019 C43.8772653,94.9710575 43.9754694,94.4840494 43.9754694,93.962963 L43.9754694,88.022607 C43.9754694,87.6778883 44.0977218,87.3832785 44.3422315,87.1387686 C44.5867419,86.8942589 44.8853597,86.7720058 45.2380952,86.7720058 C45.5828137,86.7720058 45.8774242,86.8942589 46.1219339,87.1387686 C46.3664435,87.3832785 46.4886968,87.6778883 46.4886968,88.022607 L46.4886968,98.989418 C46.4886968,99.3341367 46.3664435,99.6287466 46.1219339,99.8732564 C45.8774242,100.117766 45.5788056,100.240019 45.2260702,100.240019 Z M59.3314097,93.5060125 C59.3314097,92.928809 59.2211815,92.3856848 59.0007218,91.8766234 C58.7802621,91.367562 58.4796395,90.9206369 58.098846,90.5358345 C57.7180516,90.1510323 57.2711266,89.8464016 56.7580565,89.6219336 C56.2449871,89.3974656 55.69585,89.2852333 55.1106298,89.2852333 C54.5173935,89.2852333 53.9642484,89.3974656 53.4511782,89.6219336 C52.9381089,89.8464016 52.4931879,90.1490281 52.1164024,90.529822 C51.7396161,90.910616 51.4409984,91.3575411 51.2205387,91.8706109 C51.000079,92.3836806 50.8898508,92.928809 50.8898508,93.5060125 C50.8898508,94.083216 51.000079,94.6283444 51.2205387,95.1414141 C51.4409984,95.6544839 51.7396161,96.101409 52.1164024,96.482203 C52.4931879,96.8629969 52.9381089,97.1656234 53.4511782,97.3900914 C53.9642484,97.6145594 54.5173935,97.7267917 55.1106298,97.7267917 C55.69585,97.7267917 56.2449871,97.6145594 56.7580565,97.3900914 C57.2711266,97.1656234 57.7180516,96.8609928 58.098846,96.4761905 C58.4796395,96.0913881 58.7802621,95.644463 59.0007218,95.1354016 C59.2211815,94.6263402 59.3314097,94.083216 59.3314097,93.5060125 Z M55.1106298,86.7720058 C56.7059565,86.7720058 58.1128685,87.2650264 59.3314097,88.2510823 L59.3314097,82.2506013 C59.3314097,81.8898491 59.449654,81.5912309 59.6861476,81.3547379 C59.9226403,81.1182448 60.2212581,81 60.5820105,81 C60.934746,81 61.2333645,81.1182448 61.4778742,81.3547379 C61.7223839,81.5912309 61.8446371,81.8898491 61.8446371,82.2506013 L61.8446371,93.5060125 C61.8446371,95.3819238 61.1872758,96.9692094 59.8725347,98.2679173 C58.5417605,99.5826585 56.9544742,100.240019 55.1106298,100.240019 C53.2507524,100.240019 51.6634669,99.5826585 50.348725,98.2679173 C49.0339839,96.953176 48.3766234,95.3658903 48.3766234,93.5060125 C48.3766234,91.6461347 49.0339839,90.058849 50.348725,88.7441077 C51.6634669,87.4293665 53.2507524,86.7720058 55.1106298,86.7720058 Z M74.5550742,92.2554113 C74.4187903,91.8144919 74.2163718,91.4116581 73.9478113,91.0468976 C73.6792516,90.682137 73.366604,90.3694898 73.0098605,90.1089466 C72.6531169,89.8484034 72.2603032,89.6459844 71.8314097,89.5016835 C71.4025153,89.3573827 70.9595984,89.2852333 70.5026452,89.2852333 C70.0456927,89.2852333 69.6007718,89.3573827 69.1678694,89.5016835 C68.7349669,89.6459844 68.3381452,89.8484034 67.9773927,90.1089466 C67.6166411,90.3694898 67.3039935,90.682137 67.0394419,91.0468976 C66.7748903,91.4116581 66.5784839,91.8144919 66.4502161,92.2554113 L74.5550742,92.2554113 Z M74.0139492,96.4521405 C74.3747008,96.4521405 74.6733194,96.5703852 74.9098121,96.8068783 C75.1463056,97.0433714 75.26455,97.3419895 75.26455,97.7027417 C75.26455,98.0554772 75.1443016,98.3560994 74.9038,98.6046176 C73.6612089,99.6948908 72.1941726,100.240019 70.5026452,100.240019 C68.6427677,100.240019 67.0554823,99.5826585 65.7407411,98.2679173 C64.4259992,96.953176 63.7686387,95.3658903 63.7686387,93.5060125 C63.7686387,91.6461347 64.4259992,90.058849 65.7407411,88.7441077 C67.0554823,87.4293665 68.6427677,86.7720058 70.5026452,86.7720058 C72.3464895,86.7720058 73.9337758,87.4293665 75.26455,88.7441077 C75.921921,89.3934616 76.4149411,90.1169593 76.7436266,90.9146224 C77.0723121,91.7122856 77.2366524,92.5760736 77.2366524,93.5060125 C77.2366524,93.8667647 77.1143992,94.1653828 76.8698895,94.4018759 C76.6253798,94.638369 76.3267613,94.7566138 75.9740258,94.7566138 L66.4502161,94.7566138 C66.5865008,95.1975331 66.7869153,95.6003669 67.0514669,95.9651275 C67.3160185,96.329888 67.6266613,96.6425352 67.9834056,96.9030784 C68.3401492,97.1636216 68.7329621,97.3660406 69.1618565,97.5103415 C69.5907508,97.6546423 70.0376758,97.7267917 70.5026452,97.7267917 C71.0317484,97.7267917 71.5167524,97.6466258 71.9576718,97.4862915 C72.3985911,97.3259572 72.8074379,97.0854594 73.1842234,96.7647907 C73.424725,96.5643729 73.7012968,96.4601572 74.0139492,96.4521405 Z M79.040404,98.989418 L79.040404,82.2626263 C79.040404,81.9098908 79.1586492,81.6112727 79.3951419,81.3667629 C79.6316347,81.1222531 79.9302532,81 80.2910056,81 C80.6517573,81 80.9503758,81.1222531 81.1868685,81.3667629 C81.4233621,81.6112727 81.5416065,81.9098908 81.5416065,82.2626263 L81.5416065,97.7267917 L82.1188073,97.7267917 C82.4635258,97.7267917 82.7581355,97.8490448 83.0026452,98.0935546 C83.2471556,98.3380644 83.3694081,98.6366825 83.3694081,98.989418 C83.3694081,99.3341367 83.2471556,99.6287466 83.0026452,99.8732564 C82.7581355,100.117766 82.4635258,100.240019 82.1188073,100.240019 L80.2789806,100.240019 C79.9342613,100.240019 79.6416556,100.117766 79.401154,99.8732564 C79.1606532,99.6287466 79.040404,99.3341367 79.040404,98.989418 Z"/>
  </g>
</svg>

<svg xmlns="http://www.w3.org/2000/svg" xmlns:xlink="http://www.w3.org/1999/xlink" width="84" height="101"><defs><ellipse id="a" cx="37.487" cy="37.076" rx="37.487" ry="37.076"/></defs><g fill="none" fill-rule="evenodd"><g transform="translate(4)"><mask id="b" fill="#fff"><use xlink:href="#a"/></mask><path fill="#FFDA5C" fill-rule="nonzero" d="M42.383-.09c18.501 2.253 33.004 18.315 32.751 37.205-.28 20.92-17.08 37.43-37.879 37.227C16.189 74.137-.678 57.174-.36 36.512-.053 16.564 15.366.947 35.32-.281a35.286 35.286 0 0 1 2.275-.358c2.247-.278 4.53-.283 6.796-.415l.076.831c-.7.029-1.394.073-2.083.134zm0 0a36.852 36.852 0 0 0-3.96-.266 41.448 41.448 0 0 0-3.104.074C12.182 4.134-1.333 30.855 11.436 51.267c10.371 16.577 32.781 20.09 46.601 7.21 12.588-11.734 10.938-31.543-3.331-39.983C43.234 11.71 28.673 16.58 24.683 28.54 21.05 39.428 28.99 50.013 39.892 48.814c5.306-.583 9.44-5.16 9.156-10.14-.209-3.665-3.042-6.545-6.197-6.054-.964.15-2.067.875-2.609 1.668-.299.438.273 1.671.735 2.361 1.316 1.969.941 3.436-1.269 4.333-2.984 1.21-6.777-.705-7.986-4.192-1.315-3.795-.57-7.317 2.037-10.361 5.403-6.306 16.32-5.88 22.327.816 8.659 9.651 5.073 25.595-7.13 31.706-12.21 6.114-27.4 1.695-34.71-10.099C4.91 33.79 10.854 13.22 27.072 4.477 31.874 1.889 36.985.39 42.382-.09z" mask="url(#b)"/></g><path fill="#534227" fill-rule="nonzero" d="M2.49 93.83c-.754-.288-1.283-.585-1.588-.89h.012C.304 92.325 0 91.599 0 90.765c0-.609.162-1.16.487-1.653a4.408 4.408 0 0 1 1.269-1.257 6.367 6.367 0 0 1 1.761-.8 7.066 7.066 0 0 1 1.966-.282c2.005 0 3.724.806 5.16 2.417.167.208.252.461.252.758 0 .36-.119.659-.355.895a1.214 1.214 0 0 1-.896.355c-.256 0-.475-.072-.655-.216-.18-.145-.355-.3-.523-.47-.818-.817-1.812-1.226-2.983-1.226-1.154 0-2.076.353-2.765 1.058-.129.129-.193.305-.193.53a.45.45 0 0 0 .313.456l5.628 1.852c.785.305 1.314.602 1.587.89h-.012c.61.617.914 1.343.914 2.177 0 .617-.163 1.17-.487 1.66a4.511 4.511 0 0 1-1.269 1.256 6.155 6.155 0 0 1-1.756.8 7.144 7.144 0 0 1-1.96.276c-2.02 0-3.74-.798-5.158-2.393a1.261 1.261 0 0 1-.265-.782c0-.36.118-.659.355-.895.236-.237.535-.355.896-.355.264 0 .489.078.673.234.185.157.353.307.505.451.818.818 1.816 1.227 2.994 1.227 1.147 0 2.069-.361 2.766-1.082a.72.72 0 0 0 .18-.493c0-.225-.108-.381-.324-.47l-5.616-1.851zm11.471-7.058h.565v-4.521c0-.345.122-.64.367-.884.244-.245.543-.367.896-.367.345 0 .64.122.884.367.244.244.366.539.366.884v4.521h1.504c.344 0 .637.122.877.367.24.244.361.539.361.884 0 .352-.12.651-.36.895-.241.245-.534.367-.878.367h-1.504v6.049c0 1.595.802 2.393 2.405 2.393.345 0 .638.122.878.367.24.244.361.539.361.883 0 .353-.12.652-.36.896-.241.245-.534.367-.879.367-3.278 0-4.918-1.635-4.918-4.906v-6.049h-.565a1.19 1.19 0 0 1-.872-.367 1.219 1.219 0 0 1-.367-.895c0-.345.123-.64.367-.884a1.19 1.19 0 0 1 .872-.367zm10.907 1.25v.241a6.89 6.89 0 0 1 1.96-1.106 6.564 6.564 0 0 1 2.26-.385c.353 0 .732.024 1.137.072.405.048.777.134 1.118.259.34.124.623.294.848.51.224.217.337.498.337.843 0 .176-.034.34-.103.493a1.395 1.395 0 0 1-.27.402 1.184 1.184 0 0 1-.397.27 1.257 1.257 0 0 1-.493.097c-.152 0-.329-.044-.53-.132-.504-.2-1.053-.3-1.646-.3-.586 0-1.135.11-1.648.33-.513.22-.96.521-1.34.902-.382.38-.682.828-.903 1.34a4.128 4.128 0 0 0-.33 1.648v5.483c0 .345-.123.64-.367.884-.245.245-.54.367-.884.367-.353 0-.651-.122-.896-.367a1.205 1.205 0 0 1-.367-.884V88.023c0-.345.123-.64.367-.884.245-.245.543-.367.896-.367.345 0 .64.122.884.367.244.244.367.539.367.884zm20.358 12.218c-.36 0-.657-.12-.89-.36a1.26 1.26 0 0 1-.36-.879 5.592 5.592 0 0 1-1.756.944 6.59 6.59 0 0 1-2.008.295 6.001 6.001 0 0 1-2.43-.499 6.438 6.438 0 0 1-1.996-1.353 6.438 6.438 0 0 1-1.352-1.996 6.001 6.001 0 0 1-.5-2.429v-5.94c0-.345.123-.64.367-.884.245-.245.543-.367.896-.367.345 0 .64.122.884.367.245.244.367.539.367.884v5.94c0 .521.098 1.01.294 1.467.197.457.465.856.806 1.197.34.34.74.609 1.197.805.457.197.946.295 1.467.295.513 0 .998-.098 1.455-.295a3.813 3.813 0 0 0 2.014-2.008c.196-.453.294-.94.294-1.461v-5.94c0-.345.123-.64.367-.884.245-.245.543-.367.896-.367.345 0 .64.122.884.367.244.244.367.539.367.884v10.966c0 .345-.123.64-.367.884a1.219 1.219 0 0 1-.896.367zm14.105-6.734c0-.577-.11-1.12-.33-1.63a4.279 4.279 0 0 0-2.243-2.255 4.065 4.065 0 0 0-1.647-.336c-.594 0-1.147.112-1.66.337a4.257 4.257 0 0 0-1.335.908c-.376.38-.675.828-.895 1.34a4.098 4.098 0 0 0-.331 1.636c0 .577.11 1.122.33 1.635.221.513.52.96.896 1.341.377.381.822.684 1.335.908a4.094 4.094 0 0 0 1.66.337c.585 0 1.134-.112 1.647-.337a4.279 4.279 0 0 0 2.243-2.255c.22-.509.33-1.052.33-1.629zm-4.22-6.734c1.595 0 3.002.493 4.22 1.48V82.25c0-.361.119-.66.355-.896.237-.237.535-.355.896-.355.353 0 .651.118.896.355.244.236.367.535.367.896v11.255c0 1.876-.658 3.463-1.972 4.762-1.331 1.315-2.919 1.972-4.762 1.972-1.86 0-3.448-.657-4.762-1.972-1.315-1.315-1.972-2.902-1.972-4.762 0-1.86.657-3.447 1.972-4.762 1.314-1.315 2.902-1.972 4.762-1.972zm19.444 5.483a4.03 4.03 0 0 0-.607-1.208 4.321 4.321 0 0 0-2.116-1.545 4.194 4.194 0 0 0-2.664 0c-.433.144-.83.346-1.19.607-.361.26-.674.573-.939.938a3.895 3.895 0 0 0-.589 1.208h8.105zm-.541 4.197c.36 0 .66.118.896.355.236.236.355.535.355.896 0 .352-.12.653-.361.902-1.243 1.09-2.71 1.635-4.401 1.635-1.86 0-3.448-.657-4.762-1.972-1.315-1.315-1.972-2.902-1.972-4.762 0-1.86.657-3.447 1.972-4.762 1.314-1.315 2.902-1.972 4.762-1.972 1.843 0 3.43.657 4.762 1.972a6.54 6.54 0 0 1 1.479 2.17c.328.798.493 1.662.493 2.592 0 .36-.123.66-.367.896a1.24 1.24 0 0 1-.896.355H66.45c.137.44.337.843.601 1.208.265.365.576.678.932.938.357.26.75.463 1.179.607.429.145.876.217 1.34.217.53 0 1.015-.08 1.456-.24.44-.161.85-.402 1.226-.722.24-.2.517-.305.83-.313zm5.026 2.537V82.263c0-.353.119-.652.355-.896.237-.245.535-.367.896-.367.36 0 .66.122.896.367.236.244.355.543.355.896v15.464h.577c.345 0 .64.122.884.367.244.244.366.543.366.895 0 .345-.122.64-.366.884-.245.245-.54.367-.884.367h-1.84c-.345 0-.637-.122-.878-.367-.24-.244-.36-.539-.36-.884z"/></g></svg>
